img/image/logo-footer.svg

<svg width="360" height="168" viewBox="0 0 360 168" fill="none" xmlns="http://www.w3.org/2000/svg">
<path d="M5.91 150.55H0.800003C0.710003 148.6 1.37 147.11 2.75 146.08C4.13 145.04 5.88 144.53 8 144.53C10.3 144.53 12.12 145.17 13.44 146.45C14.76 147.73 15.42 149.24 15.42 150.97C15.42 151.73 15.25 152.49 14.91 153.25C14.57 154.01 14.09 154.62 13.45 155.09C15.61 156.23 16.68 158.06 16.68 160.58C16.68 162.63 15.93 164.31 14.44 165.61C12.95 166.91 10.81 167.56 8.02 167.56C5.53 167.56 3.56 166.9 2.14 165.58C0.709999 164.26 0 162.37 0 159.92H5.04001C5.04001 160.77 5.32001 161.45 5.90001 161.98C6.47001 162.51 7.18 162.77 8.02 162.77C8.93 162.77 9.64 162.52 10.14 162.02C10.65 161.52 10.9 160.93 10.9 160.23C10.9 159.55 10.65 158.97 10.14 158.47C9.63 157.97 8.92 157.72 8.02 157.72H6.31001V153.09H7.96001C8.64001 153.09 9.17 152.89 9.55 152.49C9.93 152.09 10.12 151.62 10.12 151.1C10.12 150.51 9.91 150.03 9.5 149.66C9.09 149.29 8.59001 149.1 7.99001 149.1C7.44001 149.1 6.95 149.23 6.53 149.5C6.12 149.75 5.91 150.1 5.91 150.55Z" fill="white"/>
<path d="M34.52 164.37H26.21L24.94 167.13H18.88V166.34L29.06 144.71H31.72L41.8 166.34V167.13H35.81L34.52 164.37ZM30.36 154.16L28.08 159.52H32.68L30.36 154.16Z" fill="white"/>
<path d="M53.96 150.99H54.09L57.67 144.93H63.92V145.79L57.51 155.37L64.68 166.31V167.14H58.21L54.12 160.19H53.93L49.87 167.14H43.34V166.31L50.54 155.37L44.1 145.79V144.93H50.38L53.96 150.99Z" fill="white"/>
<path d="M81.8 164.37H73.49L72.22 167.13H66.16V166.34L76.34 144.71H79L89.08 166.34V167.13H83.09L81.8 164.37ZM77.64 154.16L75.36 159.52H79.96L77.64 154.16Z" fill="white"/>
<path d="M98.54 167.1H92.74V144.9H102.54C105.06 144.9 107.02 145.73 108.44 147.39C109.86 149.05 110.54 151 110.5 153.24C110.5 155.44 109.8 157.34 108.39 158.95C106.98 160.56 105.03 161.36 102.54 161.36H98.54V167.1ZM98.45 156.32H102.54C103.26 156.32 103.84 156 104.28 155.35C104.72 154.71 104.95 153.95 104.95 153.08C104.95 152.24 104.74 151.5 104.32 150.88C103.9 150.26 103.31 149.94 102.54 149.94H98.45V156.32Z" fill="white"/>
<path d="M126.86 164.37H118.55L117.28 167.13H111.22V166.34L121.4 144.71H124.06L134.14 166.34V167.13H128.15L126.86 164.37ZM122.71 154.16L120.43 159.52H125.03L122.71 154.16Z" fill="white"/>
<path d="M146.94 144.93H165.4V167.13H159.6V150.16H152.75V167.13H146.95V144.93H146.94Z" fill="white"/>
<path d="M177.57 167.1H171.77V144.9H181.57C184.09 144.9 186.05 145.73 187.47 147.39C188.89 149.05 189.57 151 189.53 153.24C189.53 155.44 188.83 157.34 187.42 158.95C186.01 160.56 184.06 161.36 181.57 161.36H177.57V167.1ZM177.47 156.32H181.56C182.28 156.32 182.86 156 183.3 155.35C183.74 154.71 183.97 153.95 183.97 153.08C183.97 152.24 183.76 151.5 183.34 150.88C182.92 150.26 182.33 149.94 181.56 149.94H177.47V156.32Z" fill="white"/>
<path d="M207.57 155.68L195.9 167.19H194.19V144.93H199.99V155.78L211.56 144.84H213.37V167.13H207.57V155.68Z" fill="white"/>
<path d="M227.71 150.1L226.85 160.28C226.66 162.44 226.26 164.03 225.66 165.07C225.06 166.11 224.12 166.78 222.84 167.08C221.56 167.39 219.87 167.36 217.78 167L217.88 162.84C219.11 162.95 219.91 162.82 220.31 162.46C220.7 162.1 220.96 161.31 221.09 160.08L222.65 144.92H238.32V167.12H232.55V150.09H227.71V150.1Z" fill="white"/>
<path d="M258.5 144.93V149.97H250.44V153.14H257.86V158.21H250.44V161.83H258.78V167.13H244.64V144.93H258.5Z" fill="white"/>
<path d="M264.36 144.93H282.82V167.13H277.02V150.16H270.17V167.13H264.37V144.93H264.36Z" fill="white"/>
<path d="M302.54 155.68L290.87 167.19H289.16V144.93H294.96V155.78L306.53 144.84H308.34V167.13H302.54V155.68Z" fill="white"/>
<path d="M333.18 167.13H327.38V158.25H320.5V167.13H314.7V144.93H320.5V152.95H327.38V144.93H333.18V167.13Z" fill="white"/>
<path d="M352.4 164.37H344.09L342.82 167.13H336.76V166.34L346.94 144.71H349.6L359.68 166.34V167.13H353.69L352.4 164.37ZM348.24 154.16L345.96 159.52H350.56L348.24 154.16Z" fill="white"/>
<path d="M5.99997 10.64V13.26H9.70998C12.05 13.26 13.84 13.84 15.07 15.01C16.31 16.18 16.92 17.69 16.92 19.55C16.92 21.43 16.29 23 15.04 24.2701C13.78 25.5401 12.01 26.17 9.70998 26.17H0.849976V6.04004H15.31V10.64H5.99997ZM9.67998 17.63H5.99997V21.57H9.67998C10.35 21.57 10.87 21.37 11.25 20.98C11.62 20.59 11.81 20.12 11.81 19.59C11.81 19.03 11.62 18.57 11.25 18.19C10.88 17.81 10.36 17.63 9.67998 17.63Z" fill="white"/>
<path d="M28.6899 10.73L27.9099 19.9601C27.7399 21.9201 27.3799 23.36 26.8299 24.3C26.2799 25.24 25.4299 25.85 24.2699 26.13C23.1099 26.41 21.5799 26.38 19.6799 26.06L19.7699 22.29C20.8799 22.39 21.6099 22.27 21.9699 21.94C22.3199 21.61 22.5599 20.9 22.6699 19.78L24.0799 6.04004H38.2799V26.17H33.0499V10.73H28.6899Z" fill="white"/>
<path d="M55.7199 23.6701H48.1899L47.0399 26.1701H41.5499V25.4501L50.7799 5.84009H53.1999L62.3399 25.4501V26.1701H56.9099L55.7199 23.6701ZM51.9499 14.4101L49.8799 19.2701H54.0499L51.9499 14.4101Z" fill="white"/>
<path d="M78.15 10.64H70.85V26.17H65.62V6.04004H78.16V10.64H78.15Z" fill="white"/>
<path d="M101.41 16.0999C101.41 19.1699 100.45 21.6699 98.52 23.6199C96.59 25.5699 94.11 26.5399 91.06 26.5399C89.7 26.5399 88.41 26.3199 87.19 25.8799C85.97 25.4399 84.88 24.7999 83.91 23.9499C82.94 23.1099 82.17 22.0099 81.61 20.6599C81.05 19.3099 80.76 17.7899 80.76 16.0999C80.76 13.8799 81.27 11.9599 82.28 10.3399C83.3 8.71987 84.58 7.5299 86.12 6.7699C87.66 6.0099 89.34 5.62988 91.14 5.62988C92.44 5.62988 93.7 5.85988 94.92 6.30988C96.14 6.75988 97.23 7.40988 98.2 8.24988C99.17 9.08988 99.94 10.1899 100.53 11.5399C101.11 12.8999 101.41 14.4199 101.41 16.0999ZM86.02 16.0999C86.02 17.8099 86.52 19.1399 87.51 20.1099C88.51 21.0799 89.7 21.5599 91.08 21.5599C92.44 21.5599 93.63 21.0799 94.63 20.1099C95.64 19.1399 96.14 17.8099 96.14 16.0999C96.14 14.3899 95.64 13.0599 94.64 12.0899C93.64 11.1199 92.47 10.6399 91.13 10.6399C89.71 10.6399 88.5 11.1099 87.51 12.0599C86.52 13.0099 86.02 14.3599 86.02 16.0999Z" fill="white"/>
<path d="M109.11 10.64H104.16V6.04004H119.11V10.64H114.19V26.17H109.1V10.64H109.11Z" fill="white"/>
<path d="M138.53 12.14C138.53 12.77 138.38 13.41 138.07 14.05C137.76 14.69 137.36 15.21 136.86 15.62C137.67 16.02 138.28 16.61 138.71 17.37C139.14 18.14 139.36 18.99 139.36 19.93C139.36 21.71 138.8 23.18 137.68 24.33C136.56 25.48 134.99 26.0599 132.98 26.0599H123.29V5.95996H132.18C134.06 5.95996 135.59 6.52994 136.77 7.65994C137.94 8.77994 138.53 10.28 138.53 12.14ZM131.8 10.5299H128.55V13.89H131.8C132.28 13.89 132.65 13.74 132.92 13.43C133.19 13.12 133.33 12.7499 133.35 12.3099C133.37 11.8299 133.24 11.4099 132.96 11.0599C132.69 10.6999 132.3 10.5299 131.8 10.5299ZM132.58 18.15H128.55V21.49H132.6C133.52 21.49 134.04 20.9699 134.15 19.9399C134.19 19.4599 134.06 19.0399 133.76 18.6899C133.47 18.3199 133.07 18.15 132.58 18.15Z" fill="white"/>
<path d="M163.66 16.0999C163.66 19.1699 162.7 21.6699 160.77 23.6199C158.84 25.5699 156.36 26.5399 153.31 26.5399C151.95 26.5399 150.66 26.3199 149.44 25.8799C148.22 25.4399 147.13 24.7999 146.16 23.9499C145.19 23.1099 144.42 22.0099 143.86 20.6599C143.29 19.3099 143.01 17.7899 143.01 16.0999C143.01 13.8799 143.52 11.9599 144.53 10.3399C145.55 8.71987 146.83 7.5299 148.37 6.7699C149.91 6.0099 151.59 5.62988 153.39 5.62988C154.69 5.62988 155.95 5.85988 157.17 6.30988C158.39 6.75988 159.48 7.40988 160.45 8.24988C161.42 9.08988 162.19 10.1899 162.78 11.5399C163.37 12.8999 163.66 14.4199 163.66 16.0999ZM148.28 16.0999C148.28 17.8099 148.78 19.1399 149.77 20.1099C150.77 21.0799 151.96 21.5599 153.34 21.5599C154.7 21.5599 155.89 21.0799 156.89 20.1099C157.9 19.1399 158.4 17.8099 158.4 16.0999C158.4 14.3899 157.9 13.0599 156.9 12.0899C155.9 11.1199 154.73 10.6399 153.39 10.6399C151.97 10.6399 150.76 11.1099 149.77 12.0599C148.77 13.0099 148.28 14.3599 148.28 16.0999Z" fill="white"/>
<path d="M173.64 26.1398H168.38V6.00977H177.27C179.55 6.00977 181.33 6.75978 182.62 8.26978C183.9 9.76978 184.53 11.5398 184.49 13.5698C184.49 15.5598 183.85 17.2898 182.58 18.7498C181.3 20.2098 179.54 20.9298 177.28 20.9298H173.66V26.1398H173.64ZM173.55 16.3598H177.26C177.91 16.3598 178.44 16.0698 178.84 15.4798C179.24 14.8998 179.44 14.2098 179.44 13.4198C179.44 12.6498 179.25 11.9898 178.87 11.4198C178.49 10.8498 177.95 10.5698 177.26 10.5698H173.55V16.3598Z" fill="white"/>
<path d="M200.84 15.7899L190.26 26.2299H188.71V6.03995H193.97V15.87L204.47 5.94995H206.11V26.1599H200.85V15.7899H200.84Z" fill="white"/>
<path d="M215.18 10.64H210.23V6.04004H225.18V10.64H220.26V26.17H215.17V10.64H215.18Z" fill="white"/>
<path d="M241.89 6.04004V10.61H234.59V13.4901H241.32V18.09H234.59V21.3701H242.15V26.17H229.32V6.04004H241.89Z" fill="white"/>
<path d="M254.46 10.73L253.68 19.9601C253.51 21.9201 253.15 23.36 252.6 24.3C252.05 25.24 251.2 25.85 250.04 26.13C248.88 26.41 247.35 26.38 245.45 26.06L245.54 22.29C246.65 22.39 247.38 22.27 247.74 21.94C248.1 21.61 248.33 20.9 248.45 19.78L249.86 6.04004H264.06V26.17H258.83V10.73H254.46Z" fill="white"/>
<path d="M274.93 6.04004V12.05H278.64C279.68 12.05 280.62 12.2101 281.49 12.5201C282.35 12.8401 283.07 13.27 283.63 13.81C284.2 14.36 284.67 14.98 285.07 15.69C285.46 16.4 285.7 17.14 285.79 17.92C285.88 18.7 285.88 19.47 285.79 20.25C285.7 21.03 285.47 21.77 285.07 22.48C284.68 23.19 284.2 23.82 283.63 24.36C283.06 24.91 282.35 25.34 281.49 25.67C280.63 26 279.68 26.16 278.64 26.16H269.81V6.03003H274.93V6.04004ZM278.64 16.6801H274.93V21.54C275.2 21.54 275.58 21.54 276.08 21.55C276.58 21.56 277.04 21.56 277.46 21.56C277.88 21.56 278.27 21.55 278.64 21.53C279.2 21.53 279.67 21.36 280.05 21.03C280.43 20.7 280.66 20.29 280.74 19.81C280.81 19.33 280.81 18.86 280.71 18.39C280.61 17.92 280.38 17.5201 280 17.1801C279.63 16.8501 279.18 16.6801 278.64 16.6801Z" fill="white"/>
<path d="M306.82 26.17H301.56V18.1201H295.32V26.17H290.06V6.04004H295.32V13.32H301.56V6.04004H306.82V26.17Z" fill="white"/>
<path d="M317.69 6.04004V12.05H321.4C322.44 12.05 323.38 12.2101 324.25 12.5201C325.11 12.8401 325.83 13.27 326.39 13.81C326.96 14.36 327.43 14.98 327.83 15.69C328.22 16.4 328.46 17.14 328.55 17.92C328.64 18.7 328.64 19.47 328.55 20.25C328.46 21.03 328.23 21.77 327.83 22.48C327.44 23.19 326.96 23.82 326.39 24.36C325.82 24.91 325.11 25.34 324.25 25.67C323.39 26 322.44 26.16 321.4 26.16H312.57V6.03003H317.69V6.04004ZM321.4 16.6801H317.69V21.54C317.96 21.54 318.34 21.54 318.84 21.55C319.34 21.56 319.8 21.56 320.22 21.56C320.64 21.56 321.03 21.55 321.4 21.53C321.96 21.53 322.43 21.36 322.81 21.03C323.19 20.7 323.42 20.29 323.5 19.81C323.57 19.33 323.57 18.86 323.47 18.39C323.37 17.92 323.14 17.5201 322.76 17.1801C322.39 16.8501 321.93 16.6801 321.4 16.6801ZM336.52 6.04004V26.17H331.29V6.04004H336.52Z" fill="white"/>
<path d="M342.27 26.22V6.03H347.53V15.86L358.03 5.94H359.67V26.15H354.41V15.77L343.83 26.21H342.27V26.22ZM348.34 3.78C349.16 4.58 350.32 4.97 351.82 4.97C353.35 4.97 354.53 4.57 355.34 3.78C356.15 2.99 356.59 1.82001 356.65 0.290009C355.36 0.140009 354.42 0.04 353.8 0C353.65 1.02 352.97 1.52002 351.76 1.52002C350.57 1.52002 349.95 1.01 349.89 0L347.04 0.290009C347.08 1.82001 347.51 2.99 348.34 3.78Z" fill="white"/>
<path d="M35.67 122.52V115.24C25.54 114.89 17.21 112.16 10.67 107.07C4.13 101.97 0.859985 94.7099 0.859985 85.2899C0.859985 75.8699 4.10999 68.5899 10.62 63.4499C17.12 58.3199 25.44 55.5399 35.57 55.1199V48.1599H53.61V55.1199C64.09 55.5399 72.49 58.2199 78.82 63.1399C85.15 68.0599 88.31 75.4499 88.31 85.2899C88.31 91.9699 86.69 97.5799 83.46 102.12C80.22 106.66 76.09 109.93 71.06 111.93C66.03 113.93 60.18 115.04 53.49 115.25V122.53H35.67V122.52ZM20.16 85.2799C20.16 93.7199 25.4 98.2899 35.88 98.9899V71.6699C25.4 72.0899 20.16 76.6299 20.16 85.2799ZM69.01 85.2799C69.01 76.6299 63.77 72.0899 53.29 71.6699V98.9899C63.77 98.2899 69.01 93.7199 69.01 85.2799Z" fill="white"/>
<path d="M174.2 85.39C174.2 96.64 170.67 105.84 163.6 112.98C156.53 120.12 147.41 123.69 136.22 123.69C131.23 123.69 126.5 122.88 122.03 121.26C117.56 119.64 113.55 117.29 110 114.19C106.45 111.1 103.63 107.07 101.56 102.11C99.4899 97.15 98.45 91.58 98.45 85.39C98.45 77.23 100.31 70.18 104.04 64.24C107.77 58.3 112.46 53.94 118.12 51.16C123.78 48.38 129.92 46.99 136.53 46.99C141.31 46.99 145.94 47.82 150.4 49.47C154.87 51.12 158.87 53.5 162.43 56.59C165.98 59.69 168.83 63.71 170.98 68.67C173.13 73.62 174.2 79.2 174.2 85.39ZM117.76 85.39C117.76 91.65 119.59 96.56 123.24 100.11C126.9 103.66 131.26 105.44 136.32 105.44C141.31 105.44 145.66 103.66 149.35 100.11C153.04 96.56 154.89 91.65 154.89 85.39C154.89 79.13 153.06 74.23 149.4 70.67C145.74 67.12 141.45 65.34 136.53 65.34C131.33 65.34 126.89 67.08 123.24 70.56C119.59 74.05 117.76 78.99 117.76 85.39Z" fill="white"/>
<path d="M285.32 105.96H288.06C290.8 105.89 292.67 105.21 293.65 103.9C294.63 102.6 295.34 100.15 295.76 96.5699L301.35 48.46H352.3V105.95H359.68V130.95H344.07V122.3H299.97V130.95H285.31V105.96H285.32ZM318.12 65.0299L314.75 97.21C314.4 101.78 313.27 104.84 311.37 106.39H333.1V65.0299H318.12Z" fill="white"/>
<path d="M202.07 97.7499L228.44 72.92H202.07V48.46H184.34V122.31H202.07V97.7499Z" fill="#ED1C24"/>
<path d="M257.45 48.46V72.0299V72.92L231.08 97.7499H257.45V122.31H275.17V48.46H257.45Z" fill="#ED1C24"/>
</svg>

<svg width="360" height="168" fill="none" xmlns="http://www.w3.org/2000/svg"><path d="M5.91 150.55H.8c-.09-1.95.57-3.44 1.95-4.47 1.38-1.04 3.13-1.55 5.25-1.55 2.3 0 4.12.64 5.44 1.92 1.32 1.28 1.98 2.79 1.98 4.52 0 .76-.17 1.52-.51 2.28-.34.76-.82 1.37-1.46 1.84 2.16 1.14 3.23 2.97 3.23 5.49 0 2.05-.75 3.73-2.24 5.03-1.49 1.3-3.63 1.95-6.42 1.95-2.49 0-4.46-.66-5.88-1.98C.71 164.26 0 162.37 0 159.92h5.04c0 .85.28 1.53.86 2.06.57.53 1.28.79 2.12.79.91 0 1.62-.25 2.12-.75.51-.5.76-1.09.76-1.79 0-.68-.25-1.26-.76-1.76s-1.22-.75-2.12-.75H6.31v-4.63h1.65c.68 0 1.21-.2 1.59-.6.38-.4.57-.87.57-1.39 0-.59-.21-1.07-.62-1.44-.41-.37-.91-.56-1.51-.56-.55 0-1.04.13-1.46.4-.41.25-.62.6-.62 1.05ZM34.52 164.37h-8.31l-1.27 2.76h-6.06v-.79l10.18-21.63h2.66l10.08 21.63v.79h-5.99l-1.29-2.76Zm-4.16-10.21-2.28 5.36h4.6l-2.32-5.36ZM53.96 150.99h.13l3.58-6.06h6.25v.86l-6.41 9.58 7.17 10.94v.83h-6.47l-4.09-6.95h-.19l-4.06 6.95h-6.53v-.83l7.2-10.94-6.44-9.58v-.86h6.28l3.58 6.06ZM81.8 164.37h-8.31l-1.27 2.76h-6.06v-.79l10.18-21.63H79l10.08 21.63v.79h-5.99l-1.29-2.76Zm-4.16-10.21-2.28 5.36h4.6l-2.32-5.36ZM98.54 167.1h-5.8v-22.2h9.8c2.52 0 4.48.83 5.9 2.49 1.42 1.66 2.1 3.61 2.06 5.85 0 2.2-.7 4.1-2.11 5.71-1.41 1.61-3.36 2.41-5.85 2.41h-4v5.74Zm-.09-10.78h4.09c.72 0 1.3-.32 1.74-.97.44-.64.67-1.4.67-2.27 0-.84-.21-1.58-.63-2.2-.42-.62-1.01-.94-1.78-.94h-4.09v6.38ZM126.86 164.37h-8.31l-1.27 2.76h-6.06v-.79l10.18-21.63h2.66l10.08 21.63v.79h-5.99l-1.29-2.76Zm-4.15-10.21-2.28 5.36h4.6l-2.32-5.36ZM146.94 144.93h18.46v22.2h-5.8v-16.97h-6.85v16.97h-5.8v-22.2h-.01ZM177.57 167.1h-5.8v-22.2h9.8c2.52 0 4.48.83 5.9 2.49 1.42 1.66 2.1 3.61 2.06 5.85 0 2.2-.7 4.1-2.11 5.71-1.41 1.61-3.36 2.41-5.85 2.41h-4v5.74Zm-.1-10.78h4.09c.72 0 1.3-.32 1.74-.97.44-.64.67-1.4.67-2.27 0-.84-.21-1.58-.63-2.2-.42-.62-1.01-.94-1.78-.94h-4.09v6.38ZM207.57 155.68l-11.67 11.51h-1.71v-22.26h5.8v10.85l11.57-10.94h1.81v22.29h-5.8v-11.45ZM227.71 150.1l-.86 10.18c-.19 2.16-.59 3.75-1.19 4.79s-1.54 1.71-2.82 2.01c-1.28.31-2.97.28-5.06-.08l.1-4.16c1.23.11 2.03-.02 2.43-.38.39-.36.65-1.15.78-2.38l1.56-15.16h15.67v22.2h-5.77v-17.03h-4.84v.01ZM258.5 144.93v5.04h-8.06v3.17h7.42v5.07h-7.42v3.62h8.34v5.3h-14.14v-22.2h13.86ZM264.36 144.93h18.46v22.2h-5.8v-16.97h-6.85v16.97h-5.8v-22.2h-.01ZM302.54 155.68l-11.67 11.51h-1.71v-22.26h5.8v10.85l11.57-10.94h1.81v22.29h-5.8v-11.45ZM333.18 167.13h-5.8v-8.88h-6.88v8.88h-5.8v-22.2h5.8v8.02h6.88v-8.02h5.8v22.2ZM352.4 164.37h-8.31l-1.27 2.76h-6.06v-.79l10.18-21.63h2.66l10.08 21.63v.79h-5.99l-1.29-2.76Zm-4.16-10.21-2.28 5.36h4.6l-2.32-5.36ZM6 10.64v2.62h3.71c2.34 0 4.13.58 5.36 1.75 1.24 1.17 1.85 2.68 1.85 4.54 0 1.88-.63 3.45-1.88 4.72-1.26 1.27-3.03 1.9-5.33 1.9H.85V6.04h14.46v4.6H6Zm3.68 6.99H6v3.94h3.68c.67 0 1.19-.2 1.57-.59.37-.39.56-.86.56-1.39 0-.56-.19-1.02-.56-1.4-.37-.38-.89-.56-1.57-.56ZM28.69 10.73l-.78 9.23c-.17 1.96-.53 3.4-1.08 4.34s-1.4 1.55-2.56 1.83c-1.16.28-2.69.25-4.59-.07l.09-3.77c1.11.1 1.84-.02 2.2-.35.35-.33.59-1.04.7-2.16l1.41-13.74h14.2v20.13h-5.23V10.73h-4.36ZM55.72 23.67h-7.53l-1.15 2.5h-5.49v-.72l9.23-19.61h2.42l9.14 19.61v.72h-5.43l-1.19-2.5Zm-3.77-9.26-2.07 4.86h4.17l-2.1-4.86ZM78.15 10.64h-7.3v15.53h-5.23V6.04h12.54v4.6h-.01ZM101.41 16.1c0 3.07-.96 5.57-2.89 7.52-1.93 1.95-4.41 2.92-7.46 2.92-1.36 0-2.65-.22-3.87-.66-1.22-.44-2.31-1.08-3.28-1.93-.97-.84-1.74-1.94-2.3-3.29-.56-1.35-.85-2.87-.85-4.56 0-2.22.51-4.14 1.52-5.76 1.02-1.62 2.3-2.81 3.84-3.57 1.54-.76 3.22-1.14 5.02-1.14 1.3 0 2.56.23 3.78.68 1.22.45 2.31 1.1 3.28 1.94.97.84 1.74 1.94 2.33 3.29.58 1.36.88 2.88.88 4.56Zm-15.39 0c0 1.71.5 3.04 1.49 4.01 1 .97 2.19 1.45 3.57 1.45 1.36 0 2.55-.48 3.55-1.45 1.01-.97 1.51-2.3 1.51-4.01s-.5-3.04-1.5-4.01c-1-.97-2.17-1.45-3.51-1.45-1.42 0-2.63.47-3.62 1.42-.99.95-1.49 2.3-1.49 4.04ZM109.11 10.64h-4.95v-4.6h14.95v4.6h-4.92v15.53h-5.09V10.64h.01ZM138.53 12.14c0 .63-.15 1.27-.46 1.91-.31.64-.71 1.16-1.21 1.57.81.4 1.42.99 1.85 1.75.43.77.65 1.62.65 2.56 0 1.78-.56 3.25-1.68 4.4-1.12 1.15-2.69 1.73-4.7 1.73h-9.69V5.96h8.89c1.88 0 3.41.57 4.59 1.7 1.17 1.12 1.76 2.62 1.76 4.48Zm-6.73-1.61h-3.25v3.36h3.25c.48 0 .85-.15 1.12-.46.27-.31.41-.68.43-1.12.02-.48-.11-.9-.39-1.25-.27-.36-.66-.53-1.16-.53Zm.78 7.62h-4.03v3.34h4.05c.92 0 1.44-.52 1.55-1.55.04-.48-.09-.9-.39-1.25-.29-.37-.69-.54-1.18-.54ZM163.66 16.1c0 3.07-.96 5.57-2.89 7.52-1.93 1.95-4.41 2.92-7.46 2.92-1.36 0-2.65-.22-3.87-.66-1.22-.44-2.31-1.08-3.28-1.93-.97-.84-1.74-1.94-2.3-3.29-.57-1.35-.85-2.87-.85-4.56 0-2.22.51-4.14 1.52-5.76 1.02-1.62 2.3-2.81 3.84-3.57 1.54-.76 3.22-1.14 5.02-1.14 1.3 0 2.56.23 3.78.68 1.22.45 2.31 1.1 3.28 1.94.97.84 1.74 1.94 2.33 3.29.59 1.36.88 2.88.88 4.56Zm-15.38 0c0 1.71.5 3.04 1.49 4.01 1 .97 2.19 1.45 3.57 1.45 1.36 0 2.55-.48 3.55-1.45 1.01-.97 1.51-2.3 1.51-4.01s-.5-3.04-1.5-4.01c-1-.97-2.17-1.45-3.51-1.45-1.42 0-2.63.47-3.62 1.42-1 .95-1.49 2.3-1.49 4.04ZM173.64 26.14h-5.26V6.01h8.89c2.28 0 4.06.75 5.35 2.26 1.28 1.5 1.91 3.27 1.87 5.3 0 1.99-.64 3.72-1.91 5.18-1.28 1.46-3.04 2.18-5.3 2.18h-3.62v5.21h-.02Zm-.09-9.78h3.71c.65 0 1.18-.29 1.58-.88.4-.58.6-1.27.6-2.06 0-.77-.19-1.43-.57-2-.38-.57-.92-.85-1.61-.85h-3.71v5.79ZM200.84 15.79l-10.58 10.44h-1.55V6.04h5.26v9.83l10.5-9.92h1.64v20.21h-5.26V15.79h-.01ZM215.18 10.64h-4.95v-4.6h14.95v4.6h-4.92v15.53h-5.09V10.64h.01ZM241.89 6.04v4.57h-7.3v2.88h6.73v4.6h-6.73v3.28h7.56v4.8h-12.83V6.04h12.57ZM254.46 10.73l-.78 9.23c-.17 1.96-.53 3.4-1.08 4.34s-1.4 1.55-2.56 1.83c-1.16.28-2.69.25-4.59-.07l.09-3.77c1.11.1 1.84-.02 2.2-.35.36-.33.59-1.04.71-2.16l1.41-13.74h14.2v20.13h-5.23V10.73h-4.37ZM274.93 6.04v6.01h3.71c1.04 0 1.98.16 2.85.47.86.32 1.58.75 2.14 1.29.57.55 1.04 1.17 1.44 1.88.39.71.63 1.45.72 2.23.09.78.09 1.55 0 2.33s-.32 1.52-.72 2.23c-.39.71-.87 1.34-1.44 1.88-.57.55-1.28.98-2.14 1.31-.86.33-1.81.49-2.85.49h-8.83V6.03h5.12v.01Zm3.71 10.64h-3.71v4.86c.27 0 .65 0 1.15.01.5.01.96.01 1.38.01.42 0 .81-.01 1.18-.03.56 0 1.03-.17 1.41-.5.38-.33.61-.74.69-1.22.07-.48.07-.95-.03-1.42s-.33-.87-.71-1.21c-.37-.33-.82-.5-1.36-.5ZM306.82 26.17h-5.26v-8.05h-6.24v8.05h-5.26V6.04h5.26v7.28h6.24V6.04h5.26v20.13ZM317.69 6.04v6.01h3.71c1.04 0 1.98.16 2.85.47.86.32 1.58.75 2.14 1.29.57.55 1.04 1.17 1.44 1.88.39.71.63 1.45.72 2.23.09.78.09 1.55 0 2.33s-.32 1.52-.72 2.23c-.39.71-.87 1.34-1.44 1.88-.57.55-1.28.98-2.14 1.31-.86.33-1.81.49-2.85.49h-8.83V6.03h5.12v.01Zm3.71 10.64h-3.71v4.86c.27 0 .65 0 1.15.01.5.01.96.01 1.38.01.42 0 .81-.01 1.18-.03.56 0 1.03-.17 1.41-.5.38-.33.61-.74.69-1.22.07-.48.07-.95-.03-1.42s-.33-.87-.71-1.21c-.37-.33-.83-.5-1.36-.5Zm15.12-10.64v20.13h-5.23V6.04h5.23ZM342.27 26.22V6.03h5.26v9.83l10.5-9.92h1.64v20.21h-5.26V15.77l-10.58 10.44h-1.56v.01Zm6.07-22.44c.82.8 1.98 1.19 3.48 1.19 1.53 0 2.71-.4 3.52-1.19.81-.79 1.25-1.96 1.31-3.49-1.29-.15-2.23-.25-2.85-.29-.15 1.02-.83 1.52-2.04 1.52-1.19 0-1.81-.51-1.87-1.52l-2.85.29c.04 1.53.47 2.7 1.3 3.49ZM35.67 122.52v-7.28c-10.13-.35-18.46-3.08-25-8.17C4.13 101.97.86 94.71.86 85.29c0-9.42 3.25-16.7 9.76-21.84 6.5-5.13 14.82-7.91 24.95-8.33v-6.96h18.04v6.96c10.48.42 18.88 3.1 25.21 8.02 6.33 4.92 9.49 12.31 9.49 22.15 0 6.68-1.62 12.29-4.85 16.83-3.24 4.54-7.37 7.81-12.4 9.81-5.03 2-10.88 3.11-17.57 3.32v7.28H35.67v-.01ZM20.16 85.28c0 8.44 5.24 13.01 15.72 13.71V71.67c-10.48.42-15.72 4.96-15.72 13.61Zm48.85 0c0-8.65-5.24-13.19-15.72-13.61v27.32c10.48-.7 15.72-5.27 15.72-13.71ZM174.2 85.39c0 11.25-3.53 20.45-10.6 27.59-7.07 7.14-16.19 10.71-27.38 10.71-4.99 0-9.72-.81-14.19-2.43-4.47-1.62-8.48-3.97-12.03-7.07-3.55-3.09-6.37-7.12-8.44-12.08-2.07-4.96-3.11-10.53-3.11-16.72 0-8.16 1.86-15.21 5.59-21.15 3.73-5.94 8.42-10.3 14.08-13.08 5.66-2.78 11.8-4.17 18.41-4.17 4.78 0 9.41.83 13.87 2.48 4.47 1.65 8.47 4.03 12.03 7.12 3.55 3.1 6.4 7.12 8.55 12.08 2.15 4.95 3.22 10.53 3.22 16.72Zm-56.44 0c0 6.26 1.83 11.17 5.48 14.72 3.66 3.55 8.02 5.33 13.08 5.33 4.99 0 9.34-1.78 13.03-5.33 3.69-3.55 5.54-8.46 5.54-14.72s-1.83-11.16-5.49-14.72c-3.66-3.55-7.95-5.33-12.87-5.33-5.2 0-9.64 1.74-13.29 5.22-3.65 3.49-5.48 8.43-5.48 14.83ZM285.32 105.96h2.74c2.74-.07 4.61-.75 5.59-2.06.98-1.3 1.69-3.75 2.11-7.33l5.59-48.11h50.95v57.49h7.38v25h-15.61v-8.65h-44.1v8.65h-14.66v-24.99h.01Zm32.8-40.93-3.37 32.18c-.35 4.57-1.48 7.63-3.38 9.18h21.73V65.03h-14.98Z" fill="#fff"/><path d="m202.07 97.75 26.37-24.83h-26.37V48.46h-17.73v73.85h17.73V97.75ZM257.45 48.46v24.46l-26.37 24.83h26.37v24.56h17.72V48.46h-17.72Z" fill="#ED1C24"/></svg>
